X:1
T:Title
%%score { ( 1 3 5 ) | ( 2 4 6 ) }
L:1/8
M:4/4
K:Ab
V:1 treble nm="Grand Piano"
V:3 treble 
V:5 treble 
V:2 bass 
V:4 bass 
V:6 bass 
V:1
 z4 z2[Q:1/4=100] [Ec][DB] | [CA]2 [CE]>[CE] [A,C][CE][EA][EG] | F2 F>F F2 G>A | B6 z2 | A6 z2 | %5
 [CA]2 [CE]>[CE] [A,C][CE][EA][EG] | F2 F>F F2 B>A | G6 z2 |[M:3/4] A6[K:bass] | %9
[M:1/4][K:treble] c>d |[M:4/4] e6 z2 | [Ac]6 z2 | B6 z2 | c6 z2 | e6 z2 | [Ac]6 z2 | %16
 [DGB][DGB][DGB][DGB] [EGc]2 [DEB]2 |[M:3/4] [A,CEA]6 |] %18
V:2
 z4 z2 [A,,A,][A,,A,] | [A,,A,]2 [A,,A,]>[A,,A,] [A,,E,][A,,A,][C,A,][C,A,] | %2
 [D,A,D]2 [D,A,D]>[D,A,D] [D,A,D]2[K:treble] E>F | G6[K:bass] z2 | C6 z2 | %5
 [A,,A,]2 [A,,A,]>[A,,A,] [A,,E,][A,,A,][C,A,][C,A,] | [D,A,D]2 [D,A,D]>[D,A,D] [D,A,D]2 D>C | %7
 E6 z2 |[M:3/4] C6 |[M:1/4][K:treble] A>B |[M:4/4] c6 z2 | [A,E]2 A,2 A,2 B>A | %12
 G6[K:bass][K:treble] z2 | A6[K:bass][K:treble] z2 | c6 z2 | [A,E]2 A,2 A,2 B>A | %16
 E,E,E,E, E,2 E,2 |[M:3/4] A,,6 |] %18
V:3
 x8 | x8 | x8 | z2 E>E E2 c>B | z2 A,>A, A,2 [Ec][DB] | x8 | x8 | z2 B,>B, B,2 F>G | %8
[M:3/4] z2[K:bass] E,>E, E,2 |[M:1/4][K:treble] x2 |[M:4/4] z2 E>E z c [df]>[ce] | z2 E2 E2 d>c | %12
 z2 E>E E2 A>B | z2 E>E E2 c>d | z2 E>E z c [df]>[ce] | z2 E2 E2 d>c | x8 |[M:3/4] x6 |] %18
V:4
 x8 | x8 | x6[K:treble] x2 | z2[K:bass] E,>E, E,2 E>D | z2 A,,>A,, A,,2 [A,,A,][A,,A,] | x8 | x8 | %7
 z2 E,>E, E,2 D>D |[M:3/4] z2 A,,>A,, A,,2 |[M:1/4][K:treble] x2 |[M:4/4] z2 A,>A, z A [A,E]2 | %11
 x8 | z2[K:bass] E,>E, E,2[K:treble] F>G | z2[K:bass] [A,,A,]>[A,,A,] [A,,A,]2[K:treble] A>B | %14
 z2 A,>A, z A [A,E]2 | x8 | x8 |[M:3/4] x6 |] %18
V:5
 x8 | x8 | x8 | x8 | x8 | x8 | x8 | x8 |[M:3/4] x2[K:bass] x4 |[M:1/4][K:treble] x2 | %10
[M:4/4] z4 E2 z2 | x8 | x8 | x8 | z4 E2 z2 | x8 | x8 |[M:3/4] x6 |] %18
V:6
 x8 | x8 | x6[K:treble] x2 | x2[K:bass] x6 | x8 | x8 | x8 | x8 |[M:3/4] x6 |[M:1/4][K:treble] x2 | %10
[M:4/4] z4 A,2 z2 | x8 | x2[K:bass] x4[K:treble] x2 | x2[K:bass] x4[K:treble] x2 | z4 A,2 z2 | x8 | %16
 x8 |[M:3/4] x6 |] %18

